X:12
T: Cailn gaelech, S. 54
N: I0511
O: Irland
S: O BOYLE, Sean: 25 Irish Folksongs, Dublin 1976]
R: "Pastorale"]
M: 6/8
L: 1/16
K: F
 | F4G2A2B4 | c4d6cB | A8G2F2 | D4F2C4
C2 | F6G2A4 | A4G2F2G3A | G8-G2F2 | G12 |
A8G2F2 | D4F2C4C2 | F4A8 | C6C4
C2 | F6G2A4 | A4GFA4G2 | F4F8 | F12

@@@ Tune index: 7287
